X:1
T:Cuckoo -- Hornpipe
R:hornpipe
B:Cole's 1000 Fiddle Tunes
M:2/4
L:1/16
K:D
uA2|AFDF AGFG|AGFE D2(EF)|GECE GECE|GFED C3A,|
DEFG A2d2|edcB A2G2|FAGF CDEG|F2D2D2:|
|:vFG|A2d2d2 veud|cBA^G A2vAuB|c2c2c2 vduc|BAGF E2AG|
FEFD fefd|cAGF E2AG|FEFD CDEG|F2D2D2:|
